X:1
T:Title
%%score { ( 1 3 ) | 2 }
L:1/8
M:4/4
K:G
V:1 treble nm="Grand Piano"
V:3 treble 
V:2 treble 
V:1
 z4 z2[Q:1/4=100] DG | B2 d2 [GB]2 A2 | G2 B4 FG | [EA]2 [EG]2 [Ec]2 [EG]2 |[M:3/4] B6 | %5
[M:1/4] BB |[M:4/4] [FA]2 [Fd]2 [Gd]2 [Ad]2 | B2 d2 ^c2 B2 | A3 [DF] [^CF]2 [CE]2 |[M:3/4] D6 | %10
[M:1/4] [Fd][Fc] |[M:4/4] [GB]2 [Gd]2 [FA]2 [FB][FA] | z2 E2 z4 | GGGA B2 d2 | %14
 [DGB] [DFA]3 z2 [DFd][DFc] | [DGB]2 [DGd]2 [DFA]2 [DFB][CFA] | %16
[M:9/8] [B,EG]2 [B,=FG]- [B,FG] [Ee]2- [Ee] z z |[M:4/4] ddde dB[DGd][EGc] | %18
[M:3/4] [DB]2 [CDA]2 [B,DG]2 |] %19
V:2
 z4 z2 [G,B,][G,B,D] | [G,DG]2 [G,B,G]2[K:bass] [D,D]2 [D,CD]2 | [G,B,D]2 [G,D]4 [G,B,D][G,B,D] | %3
 [C,C]2 [C,C]2 [C,G,]2 [C,C]2 |[M:3/4][K:treble] [G,DG]6 |[M:1/4] [G,DG][G,DG] | %6
[M:4/4][K:bass] [D,D]2 [E,A,]2 [E,A,]2 [F,D]2 | [G,DG]2 [G,B,G]2 [^G,B,=F]2 [G,DF]2 | %8
 [A,DF]3[K:bass] [A,,A,] [A,,A,]2 [A,,G,]2 |[M:3/4] [D,F,]6 |[M:1/4] [D,A,][D,D] | %11
[M:4/4] [G,D]2 [G,B,]2 [D,D]2 [D,D][^D,C] | [E,B,E]2 .[C,C]2 [G,,G,]4 | %13
 [G,B,D][G,B,D][G,B,D][G,CD] [G,DG]2 [G,B,G]2 | D,D,F,A, DCB,A, | G,2 B,,2 D,2 D,^D, | %16
[M:9/8] E,2 D,- D, [C,G,]2- [C,G,] z z | %17
[M:4/4][K:treble] [G,B,G][G,B,G][G,B,G][G,CG] [G,B,G][G,DG][K:bass]B,,C, |[M:3/4] D,2 D,2 G,2 |] %19
V:3
 x8 | x8 | x8 | x8 |[M:3/4] x6 |[M:1/4] x2 |[M:4/4] x8 | x8 | x8 |[M:3/4] x6 |[M:1/4] x2 | %11
[M:4/4] x8 | G2 z G, [B,D]4 | x8 | x8 | x8 |[M:9/8] x9 |[M:4/4] x8 |[M:3/4] x6 |] %19

